; Auto-generated from mapping work_points
; points=18 ref_z=-69.0000
G21 ; mm
G90 ; absolute
G1 F1000
; Point 1
G90 X183.4124 Y-56.8496
; Point 2
G90 X181.7436 Y-60.1469
; Point 3
G90 X181.7061 Y-58.9915
; Point 4
G90 X181.5986 Y-57.5656
; Point 5
G90 X179.6309 Y-55.4285
; Point 6
G90 X179.5388 Y-54.4782
; Point 7
G90 X179.5647 Y-53.3896
; Point 8
G90 X181.0841 Y-54.9236
; Point 9
G90 X181.7507 Y-54.7064
; Point 10
G90 X183.3418 Y-54.6748
; Point 11
G90 X186.9171 Y-53.5159
; Point 12
G90 X186.4745 Y-56.8569
; Point 13
G90 X186.7318 Y-47.8072
; Point 14
G90 X185.7035 Y-44.4274
; Point 15
G90 X185.7294 Y-43.3388
; Point 16
G90 X179.4725 Y-44.8909
; Point 17
G90 X179.2503 Y-47.4795
; Point 18
G90 X178.3683 Y-50.4892
M2
